X:128
T:Quan l'erba fresq'
C:Bernard de Ventadour
L:1/4
K:C
F | G2A | (A/G/F)E | D(E/F/E) | DzF | G2A |
G2A | B(c/B/A/B/) | AzA | B2c | (B/A/G)A | F2G |
DzF | G2A | (A/G/E)F | D(EF/E/) | DzG | F2E |
F2G | F2E | D2E | CzG | F2E | F2G | F2E |
D2E | !breath!C(F/E/D) | E2F | G2G | G>(FG) | A>(AG) |
(F!breath!E)D | D2E | F2G | F(F/E/D) | D2E | (F/E/D) |]





